!!!COM:	Du Fay, Guillaume
!!!CDT:	~1397/08/05/-1474/11/27
!!!OTL:	Malheureulx cueur que vieulx tu faire
!!!AGN:	Song; Chanson
!!!SCT:	Duf3078
!!!SCA:	Duf3078
!!!voices:	3
**kern	**kern	**kern	**text	**text
*staff3	*staff2	*staff1	*staff1	*staff1
*Ivox	*Ivox	*Ivox	*	*
*I"Tenor	*I"Contratenor	*I"Cantus	*	*
*I'T	*I'Ct	*I'Cn	*	*
*>[A,B]	*>[A,B]	*>[A,B]	*>[A,B]	*>[A,B]
*>A	*>A	*>A	*>A	*>A
*clefGv2	*clefGv2	*clefG2	*	*
*k[]	*k[]	*k[]	*	*
*M3/1	*M3/1	*M3/1	*	*
*met(O)	*met(O)	*met(O)	*	*
=1-	=1-	=1-	=1-	=1-
!!LO:TX:Z=12:t=Virelai
!LO:TX:Y=40:t=Malhereux cuer	!LO:TX:Y=40:t=Malhereux cuer	!	!	!
0c	0.C	1c	Mal 1.5.-	Com 4.-
.	.	2e/	-heu-	-bien
.	.	2f/	.	.
2c\	.	1g	-reulx	qu'ai-
2B\	.	.	.	.
=2	=2	=2	=2	=2
1A	1r	1cc	cueur,	-es
0G	0E	1.b	.	.
.	.	2g/	.	.
=3	=3	=3	=3	=3
2F/	2.A/	1a	que	vo-
2E/	.	.	.	.
.	4B\	.	.	.
0C	2c\	1g	vieulx	-lu
.	1G	.	.	.
.	.	1e	tu	par
.	2c\	.	.	.
=4	=4	=4	=4	=4
1D	2B\	1d	fai-	fai-
.	2A/	.	.	.
1C	0c	2g/	.	.
.	.	2e/	.	.
1C	.	4f/	.	.
.	.	4e/	.	.
.	.	4d/	.	.
.	.	4c/	.	.
=5	=5	=5	=5	=5
0G	0d	0B	-re?	-re,
2E/	1e	1r	.	.
2F/	.	.	.	.
=6	=6	=6	=6	=6
1G	1d	1b	Vieulx	Tes
0A	2c\	1.cc	tu	plai-
.	2d\	.	.	.
.	1e	.	.	.
.	.	2a/	.	.
=7	=7	=7	=7	=7
1G	1E	1b	tant	-sirs
0c	0F	1.a	.	.
.	.	2g/	a	crai-
=8	=8	=8	=8	=8
1B	1G	0g	u-	-gnant
1A	0D	.	.	.
1A	.	2f/	-ne	luy
.	.	2e/	com-	des-
=9	=9	=9	=9	=9
0G	1d	2.g/	-plai-	-plai-
.	.	4f/	.	.
.	1B	2e/	.	.
.	.	2d/	.	.
2E/	2c\	2g/	.	.
2D/	[2d\	2a/	.	.
=10	=10	=10	=10	=10
2G/	2d\]	2b\	.	.
2A/	2c\	2.cc\	.	.
2B\	2d\	.	.	.
.	.	4b\	.	.
2c\	2e\	4a/	.	.
.	.	4g/	.	.
1A	2.c\	2.f#i/	.	.
.	4B\	4e/	.	.
=11	=11	=11	=11	=11
0G	1d	0.g	-re	-re,
.	1B	.	.	.
1r	1G	.	.	.
=12	=12	=12	=12	=12
1c	2C/	2r	.	.
.	4E/	1g	Que	Ac-
.	4F/	.	.	.
2B\	2G/	.	.	.
2c\	2C/	2e/	ung	.
1d	1BB	1f	seul	-crois-
=13	=13	=13	=13	=13
2c\	0C	0e	jour	-sant
2A/	.	.	.	.
2G/	.	.	.	.
1c	.	.	.	.
.	1G	1d	je	son
2B\	.	.	.	.
=14	=14	=14	=14	=14
1c	1C	1c	n'a-	bon
1G	1E	1B	-ye	bruit
2r	1C	2.e/	re-	et
2G/	.	.	.	.
.	.	4d/	.	.
=15	=15	=15	=15	=15
2A/	2c\	2.f/	.	.
2F/	2A/	.	.	.
.	.	4e/	.	.
2G/	2B\	4d/	.	.
.	.	4c/	.	.
2E/	1G	1c	.	.
1D	.	.	.	.
.	2F/	2B/	.	.
=16	=16	=16	=16	=16
0.C	1G	1c	-pos?	los;
.	2A/	1r	.	.
.	2G/	.	.	.
.	2.c\	1r	.	.
.	4B\	.	.	.
=17	=17	=17	=17	=17
0.r	4A/	1cc	Pen-	Mal
.	4G/	.	.	.
.	2A/	.	.	.
.	2E/	2b\	-ser	t'en
.	2F/	2.a/	ne	est
.	1D	.	.	.
.	.	4g/	.	.
.	.	2f/	.	.
=18	=18	=18	=18	=18
1c	2C/	1e	puis	prins
.	4E/	.	.	.
.	4F/	.	.	.
2B\	4G/	1r	.	.
.	8F/L	.	.	.
.	8G/J	.	.	.
2.A/	2A/	.	.	.
.	2c\	1a	a	pour
4G/	.	.	.	.
2F/	2d\	.	.	.
=19	=19	=19	=19	=19
0E	0e	2.g/	quel	ce
.	.	4a/	.	.
.	.	1b	.	.
1A	1e	1cc	pro-	tes
=20	=20	=20	=20	=20
2.G/	1E	1.b	-pos	los
4A/	.	.	.	.
1B	1G	.	.	.
.	.	2g/	.	.
1c	1C	4a/	.	.
.	.	4g/	.	.
.	.	4f/	.	.
.	.	4e/	.	.
=21	=21	=21	=21	=21
2B\	2G/	2d/	.	.
1e	4A/	2c/	.	.
.	4B/	.	.	.
.	2c\	2cc\	.	.
2d\	2G/	2b\	.	.
1c	1A	2.a/	.	.
.	.	4g/	.	.
=22	=22	=22	=22	=22
1B	1E	1b	.	.
0E	2.e\	1g	.	.
.	4d\	.	.	.
.	1B	1r	.	.
=23	=23	=23	=23	=23
1r	1A	1a	Tu	Que
1e	1c	2g/	me	brief
.	.	1cc	fais	pen-
1d	1G	.	.	.
.	.	2b\	.	.
=24	=24	=24	=24	=24
2c\	2A/	2cc\	tant	-se
2d\	2D/	1a	.	.
1B	1E	.	.	.
.	.	2g/	de	de
2.A/	2r	2a/	pai	te
.	[2c\	2e/	ne-	des-
4G/	.	.	.	.
=25	=25	=25	=25	=25
2A/	4c\]	2.cc\	-trai-	-fai-
.	4d\	.	.	.
2E/	1.e	.	.	.
.	.	4b\	.	.
2c\	.	2a/	.	.
2B\	.	2g/	.	.
2A/	2c\	2f/	.	.
4G/	4B/	2e/	.	.
4E/	4G/	.	.	.
=26	=26	=26	=26	=26
2F/	2A/	2a/	.	.
2E/	2B\	4g/	.	.
.	.	4e/	.	.
2A/	2c\	2f/	.	.
2G/	2B\	2.e/	.	.
1F	4A/	.	.	.
.	2A/	4d/	.	.
.	.	4d/	.	.
.	4G/	4c/	.	.
=27	=27	=27	=27	=27
0.El	0.Bl	0.el	-re.	-re.
!!LO:TX:rj:Z=12:i:t=finis
!!LO:LB:i:g=z
=28||	=28||	=28||	=28||	=28||
*>B	*>B	*>B	*>B	*>B
*clefGv2	*clefGv2	*clefG2	*	*
*k[]	*k[]	*k[]	*	*
*M2/1	*M2/1	*M2/1	*	*
*met(C)	*met(C)	*met(C)	*	*
!LO:TX:Y=32:t=Ta leault&eacute;	!LO:TX:Y=32:t=Nous n'avons	!	!	!
!LO:TX:Y=52:t=Nous n'avons	!LO:TX:Y=52:t=Ta leault&eacute;	!	!	!
0e	[0E	1.g	Nous 2.	Ta 3.
.	.	2a/	n'a-	le-
=29	=29	=29	=29	=29
0e	0E]	1b	-vons	-aul-
.	.	1cc	ne	-t&eacute;
=30	=30	=30	=30	=30
0f	0D	1dd	joy-	ne
.	.	2cc\	.	.
.	.	[2a/	.	.
=31	=31	=31	=31	=31
0e	0C	2a/]	.	.
.	.	2g/	.	.
.	.	1g	-e	nous
=32	=32	=32	=32	=32
1d	1D	2f/	ne	Vault
.	.	2.a/	.	.
1c	1A	.	.	.
.	.	4g/	.	.
.	.	2e/	.	.
=33	=33	=33	=33	=33
0d	1D	2f/	.	.
.	.	2g/	.	.
.	1B-i	2f/	.	.
.	.	4e/	.	.
.	.	4d/	.	.
=34	=34	=34	=34	=34
1e	1A	0c	bien,	rien,
2.A/	[1F	.	.	.
4B\	.	.	.	.
=35	=35	=35	=35	=35
2A/	2F/]	0r	.	.
4G/	2A/	.	.	.
4F/	.	.	.	.
1E	2G/	.	.	.
.	2F/	.	.	.
=36	=36	=36	=36	=36
0D	0A	1d	Ne	Et
.	.	1f	toy	qui
=37	=37	=37	=37	=37
1r	1A	1e	ne	pis
1d	[1D	[1d	moy	est,
=38	=38	=38	=38	=38
1f	1D]	1d]	.	.
1e	1C	1g	tu	seur
=39	=39	=39	=39	=39
[0d	1r	2a/	le	je
.	.	2b\	.	.
.	1D	2a/	sces	me
.	.	[2dd\	.	.
=40	=40	=40	=40	=40
1d]	1G	2dd\]	.	.
.	.	2cc\	.	.
1c	1A	[1a	.	.
=41	=41	=41	=41	=41
0B	0E	1a]	.	.
.	.	2g#i/	.	.
.	.	2f#i/	.	.
=42	=42	=42	=42	=42
[0A	0e	0a	bien,	tien
=43	=43	=43	=43	=43
0A]	0c	1r	.	.
.	.	[1e	Tous	Qu'il
=44	=44	=44	=44	=44
0E	0B	2e/]	.	.
.	.	2f/	.	.
.	.	1g	jours	n'en
=45	=45	=45	=45	=45
1F	1A	1a	lan-	chaut
1E	2B\	1g	-guis-	a
.	2c\	.	.	.
=46	=46	=46	=46	=46
0D	2d\	1.f	-sons	no-
.	2A/	.	.	.
.	1B	.	.	.
.	.	2e/	.	.
=47	=47	=47	=47	=47
1C	1c	1e	en	-stre
1E	2C/	1c	des-	mais-
.	2G/	.	.	.
=48	=48	=48	=48	=48
2F/	2A/	2d/	-tres-	-tres-
1G	1B	1e	.	.
2A/	2c\	2f/	.	.
=49	=49	=49	=49	=49
2G/	2B\	2e/	.	.
4F/	4A/	4d/	.	.
4E/	4G/	4c/	.	.
1D	2.F/	1B	.	.
.	4E/	.	.	.
=50	=50	=50	=50	=50
1C	2.G/	2c/	.	.
.	.	1e	.	.
.	4A/	.	.	.
2G/	2B\	.	.	.
2A/	2c\	2f/	.	.
=51	=51	=51	=51	=51
2G/	2C/	1g	.	.
1c	2E/	.	.	.
.	2F/	2a/	.	.
2B\	2G/	2g/	.	.
=52	=52	=52	=52	=52
1.c	[0C	0eN	-se;	-se.
2d\	.	.	.	.
=53	=53	=53	=53	=53
1eN	1CN]	1r	.	.
1A	1F	1a	.	.
=54	=54	=54	=54	=54
1B	1E	2g/	.	.
.	.	2f/	.	.
1c	1r	[1a	.	.
=55	=55	=55	=55	=55
1.A	1.c	2a/]	.	.
.	.	2g/	.	.
.	.	2f/	.	.
2G/	2B\	2e/	.	.
=56	=56	=56	=56	=56
1A	1c	1e	.	.
1F	2A/	1a	.	.
.	2d\	.	.	.
=57	=57	=57	=57	=57
1E	2e\	1g	.	.
.	2c\	.	.	.
1D	1d	[1f	.	.
=58	=58	=58	=58	=58
0G	2.B\	2f/]	.	.
.	.	2e/	.	.
.	4A/	.	.	.
.	2B\	[1e	.	.
.	2c\	.	.	.
=59	=59	=59	=59	=59
0F	1.A	2e/]	.	.
.	.	2d/	.	.
.	.	2d/	.	.
.	2G/	2c/	.	.
=60	=60	=60	=60	=60
0El	0Bl	0el	.	.
=||	=||	=||	=||	=||
*-	*-	*-	*-	*-
!!!RDF**kern: l=long note in original notation
!!!RDF**kern: i=editorial accidental
!!!RDF**kern: N=signum congruentiae
!!!ENC:	Jesse Rodin 3/28/2016
!!!END:	2016/03/28/
!!!EED:	Jesse Rodin
!!!EEV:	2016/03/30/
!!!ONB:	Translated from MusicXML and edited on 2016/03/30/ by Craig Sapp
!!muse2ps: C^@{COM}^i2I150v95,95,150Q8c99
